X:103
T:Springlek efter Omas Per
S:efter [[Personer/Omas Per]]
S:känd genom [[Personer/Mattias Helje]]
R:Polska
Z:Anton Teljebäck 2007-12-12
N:Det finns fler låtar från [[Platser/Norge]]
O:Norge
M:3/4
L:1/8
K:D
(3 fef a>g f>d | ef d>e c>c | d>d cc A>B | G<B A4 | f<a ga/g/ f>d | e<f de c>c | d>d cc A<B | G2 A4 :| 
D>E FG A>B | G>G (3 FDF ~E>C | DE F>G A>B | G2 FD/F/ ~E>D | C2 D4:| 
(:musicend:)

Vad talar för att det är en norsk låt? /Torbjörn 

(:music:)
